!!!COM: Bach, Johann Sebastian
!!!CDT: 1685/02/21/-1750/07/28/
!!!OTL@@DE: Jesu, nun sei gepreiset
!!!SCT: BWV 41/6 & 171/6
!!!PC#: 11
!!!AGN: chorale
**harm	**kern	**kern	**kern	**kern
*	*ICvox	*ICvox	*ICvox	*ICvox
*	*Ibass	*Itenor	*Ialto	*Isoprn
*	*I"Bass	*I"Tenor	*I"Alto	*I"Soprano
*	*	*oclefC4	*oclefC3	*oclefC1
*	*clefF4	*clefGv2	*clefG2	*clefG2
*k[]	*k[]	*k[]	*k[]	*k[]
*C:	*C:	*C:	*C:	*C:
*M4/4	*M4/4	*M4/4	*M4/4	*M4/4
*met(c)	*met(c)	*met(c)	*met(c)	*met(c)
*MM100	*MM100	*MM100	*MM100	*MM100
I	4C	4c	4g	4ee
=1	=1	=1	=1	=1
I	4C	4c	4g	4ee
I	4c	4e	4g	4cc
V6	4B	4d	4g	4dd
V2/IV	4B-	4c	4g	4ee
=2	=2	=2	=2	=2
I6	4A	4c	4f	4ff
I	4F	4f	4a	4ff
IV;	4B-;	4f;	4b-;	4dd;
C:V6/V	4F#	4A	4a	4dd
=3	=3	=3	=3	=3
V	8GL	8BnL	8gL	8ddL
V2	8FnJ	8BnJ	8gJ	8ddJ
I6	4E	4c	4g	4cc
IV	4F	4f	4a	4cc
V	4G	4d	4g	4b
=4	=4	=4	=4	=4
I	2C;	2e;	2g;	2cc;
.	4r	4ry	4ry	4r
G:I	4GG	4B	4g	4dd
=5	=5	=5	=5	=5
I	4G	4B	4g	4dd
V43	4A	4c	4f#	4dd
I6	4B	4d	4g	4dd
F:V7	4c	4B-	4g	4ee
=6	=6	=6	=6	=6
I	4F	4A	4fn	4cc
I	4F	4A	4fn	4cc
I;	4F;	4A;	4f;	4cc;
V6	4E	4e	4g	4cc
=7	=7	=7	=7	=7
C:V7	4G	4d	4f	4b
vi	4AL	4c	4e	4cc
ii65	4F	4c	4a	4dd
V7	4GG	4B	4f	4dd
=8	=8	=8	=8	=8
I;	2.C;	2.G;	2.e;	2.cc;
V	4GG	4d	4g	4b
=9	=9	=9	=9	=9
V	4G	4d	4g	4b
a:V65/v	4D#	4f#X	4a	4b
v	4E	4e	4g	4b
V64	4BB	4e	4g#	4b
=10	=10	=10	=10	=10
i	2AA	2e	2a	2cc
i;	4AA;	4e;	4a;	4cc;
ii%65	4D	4fn	4a	4b
=11	=11	=11	=11	=11
v	4E	4e	4g	4b
v6	4G	4e	4g	4b
C:V	8GL	8gL	8dL	8bL
V2	8FJ	8gJ	8dJ	8bJ
V43	4D	4f	4g	4b
=12	=12	=12	=12	=12
I	2C	2e	2g	2cc
I;	4C;	4e;	4g;	4cc;
=||	=||	=||	=||	=||
*M3/4	*M3/4	*M3/4	*M3/4	*M3/4
I	4C	4c	4g	4ee
=13	=13	=13	=13	=13
I	4c	4c	4g	4ee
V6	4B	4d	4g	4dd
vi7	4A	4e	4g	4cc
=14	=14	=14	=14	=14
V6	2B	2d	2g	2dd
iii6	4G	4g	4b	4ee
=15	=15	=15	=15	=15
IV6	2A	2c	2cc	2ff
vii%7	4B	4d	4a	4ff
=16	=16	=16	=16	=16
I;	2c;	2e;	2g;	2ee;
I	4C	4g	4cc	4ee
=17	=17	=17	=17	=17
V	4G	4g	4b	4dd
d:i64	4A	4f	4a	4dd
ii%43	4B-	4e	4g	4dd
=18	=18	=18	=18	=18
V	2A	2e	2a	2cc#
V7	4A	4e	4g	4cc#
=19	=19	=19	=19	=19
VI	4B-	4d	4f	4dd
i64	4A	4d	4f	4dd
ii%65	4G	4e	4b-	4dd
=20	=20	=20	=20	=20
i;	2D;	2f;	2a;	2dd;
a:i	4A	4c	4a	4ee
=21	=21	=21	=21	=21
V65	2G#	2B	2b	2dd
i	4A	4e	4a	4cc
=22	=22	=22	=22	=22
iv6	4F	4A	4a	4dd
C:vii%43	4F	4B	4a	4dd
I6	4E	4c	4gn	4ee
=23	=23	=23	=23	=23
ii7	2D	2c	2a	2ff
V7	4G	4B	4g	4ff
=24	=24	=24	=24	=24
I;	2C;	2c;	2g;	2ee;
d:V65	4C#	4A	4g	4ee
=25	=25	=25	=25	=25
i	2D	2A	2f	2dd
i6	4F	4d	4a	4dd
=26	=26	=26	=26	=26
viio6	2E	2e	2g	2cc#
viio43	4G	4e	4b-	4cc#
=27	=27	=27	=27	=27
V6/iv	4F#	4A	4a	4dd
iv	4G	4d	4b-	4dd
iv	4GG	4B-	4g	4dd
=28	=28	=28	=28	=28
I;	2D;	2A;	2f#;	2dd;
=||	=||	=||	=||	=||
*M4/4	*M4/4	*M4/4	*M4/4	*M4/4
*met(c)	*met(C)	*met(C)	*met(C)	*met(C)
C:vi	4AA	4c	4a	4ee
=29	=29	=29	=29	=29
I	4C	4c	4g	4ee
I6	4E	4c	4g	4cc
V2	4F	4B	4g	4dd
I6	4E	4c	4g	4ee
=30	=30	=30	=30	=30
ii7	4D	4c	4a	4ff
ii6	4F	4d	4a	4ff
V;	4G;	4B;	4g;	4dd;
V2	4F	4B	4g	4dd
=31	=31	=31	=31	=31
V64	4D	4B	4g	4dd
I6	4E	4c	4g	4cc
V(64)	4G	4e	4g	4cc
V7	4GG	4G	4f	4b
=32	=32	=32	=32	=32
I;	2.C;	2.G;	2.e;	2.cc;
==	==	==	==	==
*-	*-	*-	*-	*-
!!!YOR1: 371 vierstimmige Choralges&auml;nge von Johann Sebastian Bach, 
!!!YOR2: 4th ed. by Alfred D&ouml;rffel (Leipzig: Breitkopf und H&auml;rtel, 
!!!YOR2: c.1875). 178 pp. Plate "V.A.10".  reprint: J.S. Bach, 371 Four-Part 
!!!YOR4: Chorales (New York: Associated Music Publishers, Inc., c.1940).
!!!SMS: B&H, 4th ed, Alfred D&ouml;rffel, c.1875, plate V.A.10
!!!EED:  Craig Stuart Sapp
!!!EEV:  2009/05/22
